icons/arrow-reverse-shorth.svg

<svg width="24" height="24" viewBox="0 0 24 24" fill="none" xmlns="http://www.w3.org/2000/svg">
<path fill-rule="evenodd" clip-rule="evenodd" d="M13.4803 2.61969C13.1874 2.3268 12.7125 2.3268 12.4197 2.61969C12.1268 2.91259 12.1268 3.38746 12.4197 3.68035L15.0393 6.30002H7.44998C7.03577 6.30002 6.69998 6.6358 6.69998 7.05002C6.69998 7.46423 7.03577 7.80002 7.44998 7.80002H15.0393L12.4197 10.4197C12.1268 10.7126 12.1268 11.1875 12.4197 11.4804C12.7125 11.7732 13.1874 11.7732 13.4803 11.4804L16.8803 8.08035C17.1508 7.80984 17.325 7.45071 17.325 7.05002C17.325 6.64934 17.1508 6.29021 16.8803 6.01969L13.4803 2.61969ZM8.96064 16.2L11.5803 13.5803C11.8732 13.2875 11.8732 12.8126 11.5803 12.5197C11.2874 12.2268 10.8126 12.2268 10.5197 12.5197L7.11966 15.9197C6.84914 16.1902 6.67499 16.5493 6.67499 16.95C6.67499 17.3507 6.84914 17.7098 7.11966 17.9803L10.5197 21.3803C10.8126 21.6732 11.2874 21.6732 11.5803 21.3803C11.8732 21.0875 11.8732 20.6126 11.5803 20.3197L8.96066 17.7H16.55C16.9642 17.7 17.3 17.3642 17.3 16.95C17.3 16.5358 16.9642 16.2 16.55 16.2H8.96064Z" fill="black"/>
</svg>

<svg xmlns="http://www.w3.org/2000/svg" fill="none" viewBox="0 0 24 24">
  <path fill="#000" fill-rule="evenodd" d="M13.48 2.62a.75.75 0 1 0-1.06 1.06l2.62 2.62H7.45a.75.75 0 1 0 0 1.5h7.59l-2.62 2.62a.75.75 0 0 0 1.06 1.06l3.4-3.4c.27-.27.445-.63.445-1.03s-.174-.76-.445-1.03l-3.4-3.4ZM8.96 16.2l2.62-2.62a.75.75 0 1 0-1.06-1.06l-3.4 3.4c-.27.27-.445.63-.445 1.03s.174.76.445 1.03l3.4 3.4a.75.75 0 1 0 1.06-1.06L8.96 17.7h7.59a.75.75 0 0 0 0-1.5H8.96Z" clip-rule="evenodd"/>
</svg>
